!!!OTL: 251. Jn die Ferne.
!!!COM: Friedr. Glueck
!!!ODT: 1837
!!!ARE: Europa, Mitteleuropa, Deutschland
!!!SCT: B0251
!!!TXL: @@DE
!!!YEM: Copyright 1995, estate of Helmut Schaffrath.
**kern	**text
*ICvox	*
*Ivox	*
*celfG2	*
*M3/8	*
*k[b-e-a-d-]	*
*A-:	*
=1	=1
!LO:TX:a:t=Mäßig langſam und mit Ausdruck.	!
{8e-	Siehſt
8e-	du
8e-	am
=2	=2
8a-	A-
8a-	-bend
8a-	die
=3	=3
4cc	Wol-
8b-	-ken
=4	=4
4.b-}	ʒiehn?
=5	=5
{8.b-/	Siehſt
16a-	du
8g	die
=6	=6
8.g	Spi-
16f	-tʒen
8e-	der
=7	=7
4e-	Ber-
8cc	-ge
=8	=8
4a-}	glühn,
{8cc	mit
=9	=9
8.cc	e-
16b-	-wi-
16a-L	-gem
16gJ	.
=10	=10
(8b-qq	.
4a-)	Schnee
8a-	die
=11	=11
(16ccqq	.
8b-)	Gi-
8b-	-pfel
8b-	um-
=12	=12
4b-}	-glänʒt,
{8b-	mit
=13	=13
8ee-	grü-
8dd-	-nen-
8cc	-den
=14	=14
8cc	Wäl-
8b-/	-dern
8a-	die
=15	=15
8a-	Thä-
8g	-ler
8a-	um-
=16	=16
4.b-;}	-kränʒt?
=17||	=17||
{8cc	Ach,
8b-	in
8a-	die
=18	=18
(8.dd-L	Fer-
16ccJ)	.
8b-	-ne
=19	=19
8b-	ſehnt
8cc	ſich
8dd-	mein
=20	=20
4.ee-;}	Herʒ!
=21	=21
{8ee-	ach,
8dd-	in
8b-	die
=22	=22
8.ccL	Fer-
16b-J	.
8a-	-ne
=23	=23
8dd-	ſehnt
8f	ſich
8g	mein
=24	=24
4.a-;}	Herʒ!
==	==
!!!AGN: Stimmungs - Lied, Sehnsucht
!!!GTL: Trauerlieder (Elegien) und Stimmungslieder
!!!ONB: ESAC (Essen Associative Code) Database: BOEHME
!!!AMT: simple triple
!!!AIN: vox
!!!EED: Helmut Schaffrath
!!!EEV: 1.0
!!@@COMMENT:"Gedicht von Hermann Kletke um 1834 (nach ſeiner Angabe). Seine Gedichte erſchienen
!!1836, dann vermehrt 1852 in Berlin.
!!Die älteſte und ſchöne Mel. iſt von Friedr. Glück um 1837. Sie erſchien mit Pianobegl.
!!als Muſikbeilage ʒu Aug. Lewalds "Europa". - Spätere Kompofitionen lieferten Kalliwoda,
!!Marſchner, Jul. Otto rc."
!!@@END:
!!!Text: H. Kletke
!!!URL-scan: https://archive.org/details/BoehmeVtLieder1895/page/n219/mode/2up
!!!ENC: Anna Maria Matuszewska
!!!EEV: 2024/03/07
*-	*-
